Newaita-dark/.DP/24/youtube-indicator-light-sync5.svg

<svg xmlns="http://www.w3.org/2000/svg" xmlns:xlink="http://www.w3.org/1999/xlink" width="24px" height="24px" viewBox="0 0 24 24" version="1.1">
<g id="surface1">
<path style=" stroke:none;fill-rule:nonzero;fill:rgb(93.333334%,93.333334%,93.333334%);fill-opacity:1;" d="M 18.425781 13.765625 C 18.289062 13.683594 18.121094 13.65625 17.953125 13.703125 C 17.914062 13.710938 17.875 13.726562 17.835938 13.746094 C 17.027344 13.992188 16.304688 14.535156 15.851562 15.324219 C 15.398438 16.109375 15.289062 17.007812 15.476562 17.828125 C 15.480469 17.875 15.488281 17.914062 15.5 17.953125 C 15.585938 18.289062 15.925781 18.484375 16.257812 18.394531 C 16.589844 18.304688 16.785156 17.96875 16.695312 17.632812 C 16.6875 17.59375 16.671875 17.554688 16.65625 17.519531 C 16.546875 17 16.625 16.4375 16.914062 15.9375 C 17.203125 15.429688 17.648438 15.085938 18.15625 14.921875 C 18.195312 14.917969 18.234375 14.910156 18.273438 14.898438 C 18.609375 14.8125 18.804688 14.472656 18.714844 14.140625 C 18.671875 13.976562 18.5625 13.84375 18.425781 13.765625 Z M 18.425781 13.765625 "/>
<path style=" stroke:none;fill-rule:nonzero;fill:rgb(93.333334%,93.333334%,93.333334%);fill-opacity:1;" d="M 19.28125 20.351562 C 19.417969 20.429688 19.585938 20.453125 19.75 20.410156 C 19.792969 20.398438 19.832031 20.382812 19.867188 20.367188 C 20.679688 20.117188 21.398438 19.578125 21.851562 18.789062 C 22.308594 18 22.417969 17.105469 22.226562 16.28125 C 22.226562 16.242188 22.21875 16.199219 22.207031 16.15625 C 22.117188 15.828125 21.78125 15.628906 21.445312 15.71875 C 21.117188 15.808594 20.921875 16.148438 21.007812 16.476562 C 21.019531 16.515625 21.035156 16.554688 21.054688 16.59375 C 21.164062 17.109375 21.085938 17.671875 20.792969 18.175781 C 20.5 18.679688 20.054688 19.027344 19.550781 19.195312 C 19.511719 19.195312 19.46875 19.203125 19.429688 19.210938 C 19.101562 19.300781 18.90625 19.640625 18.992188 19.972656 C 19.039062 20.140625 19.144531 20.269531 19.28125 20.351562 Z M 19.28125 20.351562 "/>
<path style=" stroke:none;fill-rule:nonzero;fill:rgb(93.333334%,93.333334%,93.333334%);fill-opacity:1;" d="M 11.878906 4.363281 C 11.878906 4.363281 5.382812 4.363281 3.757812 4.789062 C 2.882812 5.03125 2.167969 5.75 1.929688 6.636719 C 1.5 8.261719 1.5 11.632812 1.5 11.632812 C 1.5 11.632812 1.5 15.015625 1.929688 16.625 C 2.167969 17.511719 2.867188 18.210938 3.757812 18.453125 C 5.398438 18.898438 11.878906 18.898438 11.878906 18.898438 C 11.878906 18.898438 13.488281 18.898438 15.304688 18.84375 C 15.039062 18.304688 14.882812 17.703125 14.882812 17.054688 C 14.882812 14.859375 16.65625 13.085938 18.851562 13.085938 C 20.210938 13.085938 21.398438 13.757812 22.117188 14.789062 C 22.257812 13.257812 22.257812 11.648438 22.257812 11.648438 C 22.257812 11.648438 22.273438 8.261719 21.828125 6.636719 C 21.59375 5.75 20.890625 5.046875 20 4.808594 C 18.375 4.363281 11.878906 4.363281 11.878906 4.363281 Z M 9.898438 7.828125 C 9.90625 7.828125 9.914062 7.828125 9.921875 7.828125 C 10.007812 7.832031 10.085938 7.855469 10.160156 7.898438 L 15.6875 11.164062 C 16.015625 11.359375 16.015625 11.832031 15.6875 12.023438 L 10.160156 15.289062 C 9.828125 15.488281 9.40625 15.25 9.40625 14.859375 L 9.40625 8.328125 C 9.40625 8.054688 9.625 7.835938 9.898438 7.828125 Z M 9.898438 7.828125 "/>
</g>
</svg>

<svg xmlns="http://www.w3.org/2000/svg" width="24" height="24"><g fill="#bdbdbd"><path d="M18.426 13.762a.615.615 0 0 0-.473-.059.474.474 0 0 0-.117.043c-.809.25-1.527.79-1.984 1.578a3.474 3.474 0 0 0-.375 2.508c.003.04.011.082.023.125a.62.62 0 1 0 1.152-.438 2.24 2.24 0 0 1 .262-1.581c.29-.504.738-.852 1.242-1.02a.617.617 0 0 0 .559-.777.636.636 0 0 0-.29-.38zm0 0M19.281 20.348c.137.082.305.109.473.062.039-.012.078-.027.117-.043a3.453 3.453 0 0 0 2.355-4.086.616.616 0 0 0-.777-.563.621.621 0 0 0-.441.759c.012.043.027.078.043.117.11.52.035 1.078-.258 1.582-.29.504-.738.851-1.242 1.015-.04.004-.078.012-.121.02a.62.62 0 0 0-.149 1.137zm0 0"/><path d="M11.879 4.363s-6.496 0-8.121.426c-.871.242-1.59.961-1.832 1.848C1.5 8.262 1.5 11.629 1.5 11.629s0 3.387.426 4.992c.242.89.941 1.594 1.832 1.832 1.64.445 8.12.445 8.12.445s1.61 0 3.427-.054a3.97 3.97 0 0 1-.422-1.79c0-2.199 1.773-3.968 3.969-3.968a3.96 3.96 0 0 1 3.265 1.703c.14-1.531.14-3.14.14-3.14s.016-3.387-.425-5.012A2.607 2.607 0 0 0 20 4.809c-1.625-.446-8.121-.446-8.121-.446zm-1.98 3.465h.023a.499.499 0 0 1 .238.07l5.527 3.266a.498.498 0 0 1 0 .86l-5.527 3.269a.502.502 0 0 1-.754-.434V8.33c0-.274.219-.493.492-.5zm0 0"/></g></svg>
